img/ball.svg

<svg width="24" height="24" fill="none" xmlns="http://www.w3.org/2000/svg"><path fill-rule="evenodd" clip-rule="evenodd" d="M12 24C5.4 24 0 18.6 0 12S5.4 0 12 0s12 5.4 12 12-5.4 12-12 12Zm10.125-10.35c-.375-.15-3.15-.975-6.375-.45 1.35 3.675 1.875 6.675 2.025 7.275 2.25-1.5 3.9-3.975 4.35-6.825Zm-6.15 7.8c-.15-.9-.75-4.05-2.175-7.8h-.075c-5.775 2.025-7.875 6-8.025 6.375A10.171 10.171 0 0 0 12 22.2c1.425.075 2.775-.225 3.975-.75ZM4.35 18.9c.225-.375 3.075-5.025 8.325-6.75.15-.075.3-.075.375-.15-.225-.6-.525-1.2-.825-1.725-5.1 1.5-10.05 1.5-10.5 1.425v.3c0 2.625 1.05 5.025 2.625 6.9Zm-2.4-9c.45 0 4.65 0 9.45-1.275-1.725-3-3.525-5.55-3.825-5.925C4.8 4.125 2.625 6.75 1.95 9.9ZM9.6 2.025c.3.375 2.175 2.925 3.825 6 3.675-1.35 5.175-3.45 5.4-3.675-1.8-1.575-4.2-2.55-6.825-2.55-.825 0-1.65.075-2.4.225ZM19.95 5.55c-.225.3-1.95 2.475-5.7 4.05.225.525.45.975.675 1.5.075.15.15.375.225.525 3.375-.45 6.825.225 7.125.3-.075-2.4-.9-4.65-2.325-6.375Z" fill="#fff"/></svg>

<svg width="24" height="24" viewBox="0 0 24 24" fill="none" xmlns="http://www.w3.org/2000/svg">
<path fill-rule="evenodd" clip-rule="evenodd" d="M12 24C5.4 24 0 18.6 0 12C0 5.4 5.4 0 12 0C18.6 0 24 5.4 24 12C24 18.6 18.6 24 12 24ZM22.125 13.65C21.75 13.5 18.975 12.675 15.75 13.2C17.1 16.875 17.625 19.875 17.775 20.475C20.025 18.975 21.675 16.5 22.125 13.65ZM15.975 21.45C15.825 20.55 15.225 17.4 13.8 13.65H13.725C7.95 15.675 5.85 19.65 5.7 20.025C7.425 21.375 9.6 22.2 12 22.2C13.425 22.275 14.775 21.975 15.975 21.45ZM4.35 18.9C4.575 18.525 7.425 13.875 12.675 12.15C12.825 12.075 12.975 12.075 13.05 12C12.825 11.4 12.525 10.8 12.225 10.275C7.125 11.775 2.175 11.775 1.725 11.7C1.725 11.775 1.725 11.925 1.725 12C1.725 14.625 2.775 17.025 4.35 18.9ZM1.95 9.9C2.4 9.9 6.6 9.9 11.4 8.625C9.675 5.625 7.875 3.075 7.575 2.7C4.8 4.125 2.625 6.75 1.95 9.9ZM9.6 2.025C9.9 2.4 11.775 4.95 13.425 8.025C17.1 6.675 18.6 4.575 18.825 4.35C17.025 2.775 14.625 1.8 12 1.8C11.175 1.8 10.35 1.875 9.6 2.025ZM19.95 5.55C19.725 5.85 18 8.025 14.25 9.6C14.475 10.125 14.7 10.575 14.925 11.1C15 11.25 15.075 11.475 15.15 11.625C18.525 11.175 21.975 11.85 22.275 11.925C22.2 9.525 21.375 7.275 19.95 5.55Z" fill="white"/>
</svg>
